!!!!SEGMENT: pl-wnifc--6730-n--005_sowinski-wojciech--chants-religieux-de-la-pologne-op-93-chant-pour-les-fetes-de-la-vierge-o-sainte-vierge-marie.krn
!!!cenid: 18xx:4019
!!!COM: Sowiński, Wojciech
!!!COM-rismID: pe30008543
!!!CDT: ~1803-1880/03/05
!!!CNT:
!!!OTL: Chants religieux de la Pologne op. 93
!!!PDT: 1830
!!!AGN:
!!!SMS-siglum: PL-Wnifc
!!!SMS-shelfmark: 6730/n
!!!SMS-shelfwork: 005 W
!!!SMS-variant:
!!!SMS-altvar:
!!!NIFC-rismSourceID: 1001138221
!!!NIFC-rismChildID: 1001138227
!!!NIFC-islandoraID: nifc:213350
!!!URL-pdf-islandora: https://repozytorium.nifc.pl/islandora/object/nifc%3A213350/datastream/PDF/view
!!!URL-scan: https://polish.musicsources.pl/pl/lokalizacje/galeria/druki-muzyczne/16913 @EN{Scan on Polish Music Sources Website} @PL{Skany w portalu Dziedzictwo Muzyki Polskiej w otwartym dostępie}
!!!IIIF:
!!!ONB-nifc: UWAGA: str. 17-21
!!!AIN: 1 calto 2 organ 2 soprn
!!!key: F
**kern	**kern	**dynam	**kern	**text	**dynam	**kern	**text	**dynam	**kern	**text	**dynam
*part5	*part4	*part4	*part3	*part3	*part3	*part2	*part2	*part2	*part1	*part1	*part1
*staff5	*staff4	*	*staff3	*staff3	*	*staff2	*staff2	*	*staff1	*staff1	*
*I"Organo	*I"ORGUE.	*	*I"CONTRALTO.	*	*	*I"2o. DESSUS.	*	*	*I"1er. DESSUS.	*	*
*	*I'org	*	*I'CA	*	*	*I'2 D	*	*	*I'1 D	*	*
*Iorgan	*Iorgan	*	*Icalto	*	*	*Isoprn	*	*	*Isoprn	*	*
*ICklav	*ICklav	*	*ICvox	*	*	*ICvox	*	*	*ICvox	*	*
*clefF4	*clefG2	*	*clefG2	*	*	*clefG2	*	*	*clefG2	*	*
*k[b-]	*k[b-]	*	*k[b-]	*	*	*k[b-]	*	*	*k[b-]	*	*
*F:	*F:	*	*F:	*	*	*F:	*	*	*F:	*	*
*M4/4	*M4/4	*	*M4/4	*	*	*M4/4	*	*	*M4/4	*	*
*met(c)	*met(c)	*	*met(c)	*	*	*met(c)	*	*	*met(c)	*	*
=1	=1	=1	=1	=1	=1	=1	=1	=1	=1	=1	=1
!	!LO:TX:a:t=Allo. moderato ma non troppo.	!	!	!	!	!	!	!	!LO:TX:a:t=Allo. moderato ma non troppo.	!	!
2F\	2f/ 2a 2cc	f	1r	.	.	1r	.	.	1r	.	.
4F\	4f/ 4a 4cc	.	.	.	.	.	.	.	.	.	.
4E\	4g/ 4cc	.	.	.	.	.	.	.	.	.	.
=2	=2	=2	=2	=2	=2	=2	=2	=2	=2	=2	=2
2D/	2f/ 2a 2dd	.	1r	.	.	1r	.	.	1r	.	.
2BB-/	2f/ 2b- 2dd	.	.	.	.	.	.	.	.	.	.
=3	=3	=3	=3	=3	=3	=3	=3	=3	=3	=3	=3
2FF;</ 2F	2f;</ 2a 2cc	.	1r	.	.	1r	.	.	1r	.	.
2r	2r	.	.	.	.	.	.	.	.	.	.
=4	=4	=4	=4	=4	=4	=4	=4	=4	=4	=4	=4
!	!	!	!	!	!LO:DY:a	!	!	!LO:DY:a	!	!	!LO:DY:a
2FF/ 2F	2f/ 2a 2cc	mf	2f/	O	mf	2a/	O	mf	2cc\	O	mf
2FF/ 2F	2f/ 2b- 2dd	.	4f/	sain-	.	4b-/	sain-	.	4dd\	sain-	.
.	.	.	4f/	-te	.	4b-/	-te	.	4dd\	-te	.
=5	=5	=5	=5	=5	=5	=5	=5	=5	=5	=5	=5
2FF/ 2F	(2f/ 2a 2cc	.	2f/	Vier-	.	2a/	Vier-	.	2cc\	Vier-	.
4FF/ 4F	4g/ 4b-	.	4f/	-ge	.	4g/	-ge	.	4b-\	-ge	.
4FF/ 4F	4f/) 4a	.	4f/	Ma-	.	4f/	Ma-	.	4a/	Ma-	.
=6	=6	=6	=6	=6	=6	=6	=6	=6	=6	=6	=6
*^	*	*	*	*	*	*	*	*	*	*	*
(4c/	2C\	2e/ 2g	.	2c/	-ri-	.	2e/	-ri-	.	2g/	-ri-	.
4B-/	.	.	.	.	.	.	.	.	.	.	.	.
4A/)	4F\	4f/	.	2f/	-e	.	2f/	-e	.	2f/	-e	.
4r	4ryy	8a/L	.	.	.	.	.	.	.	.	.	.
.	.	8cc/J	.	.	.	.	.	.	.	.	.	.
!LO:LB:g=original	!LO:LB:g=original	!LO:LB:g=original	!	!LO:LB:g=original	!	!	!LO:LB:g=original	!	!	!LO:LB:g=original	!	!
*v	*v	*	*	*	*	*	*	*	*	*	*	*
=7	=7	=7	=7	=7	=7	=7	=7	=7	=7	=7	=7
!	!	!	!	!	!	!	!	!	!	!	!LO:DY:a
2FF\ 2F	2f\ 2a 2ff	f	2f/	en-	.	2a/	en	f	2ff\	en	f
2AA\ 2A	2f\ 2cc 2ee	.	2f/	-ce	.	2cc\	ce	.	2ee\	ce	.
=8	=8	=8	=8	=8	=8	=8	=8	=8	=8	=8	=8
2BB-\ 2B-	2f\ 2b- 2dd	.	2f/	jour	.	2b-\	jour	.	2dd\	jour	.
2GG\ 2G	2g\ 2bn 2ff	.	2g^>/	so-	.	2bn^\	so-	.	2ff^\	so-	.
=9	=9	=9	=9	=9	=9	=9	=9	=9	=9	=9	=9
2C\ 2c	4g/ 4cc 4ee	>	(4g/	-len-	.	(4cc\	-len-	.	(4ee\	-len-	.
!	!	!	!	!	!LO:DY:a	!	!	!LO:DY:a	!	!	!LO:DY:a
.	4f/ 4bn 4dd	.	4f/)	.	p	4bn\)	.	p	4dd\)	.	p
2C;<\ 2c	2e;/ 2cc	]]	2e;/	-nel	.	2cc;\	-nel	.	2cc;\	-nel	.
=10	=10	=10	=10	=10	=10	=10	=10	=10	=10	=10	=10
!	!	!	!	!	!LO:DY:a	!	!	!LO:DY:a	!	!	!LO:DY:a
2FF/ 2F	2f/ 2a 2cc	p	2f/	Nous	p	2a/	Nous	p	2cc\	Nous	p
2FF/ 2F	2f/ 2b-X 2dd	.	4f/	con-	.	4b-X/	con-	.	4dd\	con-	.
.	.	.	4f/	-sa-	.	4b-/	-sa-	.	4dd\	-sa-	.
=11	=11	=11	=11	=11	=11	=11	=11	=11	=11	=11	=11
2FF/ 2F	(2f/ 2a 2cc	.	2f/	-crons	.	2a/	-crons	.	2cc\	-crons	.
.	8qcc/	.	.	.	.	.	.	.	.	.	.
4FF/ 4F	4g/ 4b-	.	4f/	no-	.	4g/	no-	.	4b-/	no-	.
4FF/ 4F	4f/) 4a	.	4f/	-tre	.	4f/	-tre	.	4a/	-tre	.
=12	=12	=12	=12	=12	=12	=12	=12	=12	=12	=12	=12
*^	*	*	*	*	*	*	*	*	*	*	*
(4c/	2C\	(2e/ 2g	.	2c/	vi-	.	2e/	vi-	.	2g/	vi-	.
4B-/	.	.	.	.	.	.	.	.	.	.	.	.
4A/)	4F\	4f/)	.	2f/	-e	.	2f/	-e	.	2f/	-e	.
4r	4ryy	8a/L	.	.	.	.	.	.	.	.	.	.
.	.	8cc/J	.	.	.	.	.	.	.	.	.	.
!LO:PB:g=original	!LO:PB:g=original	!LO:PB:g=original	!	!LO:PB:g=original	!	!	!LO:PB:g=original	!	!	!LO:PB:g=original	!	!
*v	*v	*	*	*	*	*	*	*	*	*	*	*
=13	=13	=13	=13	=13	=13	=13	=13	=13	=13	=13	=13
!	!	!	!	!	!LO:DY:a	!	!	!LO:DY:a	!	!	!LO:DY:a
2FF/ 2F	2f\ 2a 2ff	.	2f/	au	f	2a/	au	f	2ff\	au	f
2AA\ 2A	2f\ 2cc 2ee	.	2f/	pied	.	2cc\	pied	.	2ee\	pierd	.
=14	=14	=14	=14	=14	=14	=14	=14	=14	=14	=14	=14
2BB-\ 2B-	2f\ 2b- 2dd	.	2f/	de	.	2b-\	de	.	2dd\	de	.
2BBn\ 2Bn	2a-X\ 2dd 2ff	.	2a-X/	ton	.	2dd^\	ton	.	2ff^\	ton	.
=15	=15	=15	=15	=15	=15	=15	=15	=15	=15	=15	=15
2C\ 2c	(4g\ 4cc 4ee	>	(4g/	au-	.	(4cc\	au-	.	(4ee\	au-	.
!	!	!	!	!	!	!	!	!LO:DY:a	!	!	!LO:DY:a
.	4f\) 4bn 4dd	.	4f/)	.	p	4bn\)	.	p	4dd\)	.	p
2C\ 2c	2e;/ 2cc	] p	2e;/	-tel	.	2cc;\	-tel	.	2cc;\	-tel	.
=16||	=16||	=16||	=16||	=16||	=16||	=16||	=16||	=16||	=16||	=16||	=16||
!	!	!	!	!	!LO:DY:a	!	!	!LO:DY:a	!	!	!LO:DY:a
2FF/ 2F	2f/ 2a 2ff	f	2f/	que	f	2a/	que	f	2ff\	que	f
2FF/ 2F	2f/ 2a 2cc	.	2f/	notre	.	2a/	notre	.	2cc\	notre	.
=17	=17	=17	=17	=17	=17	=17	=17	=17	=17	=17	=17
2BB-\ 2B-	2f/ 2b- 2dd	.	(2f/	al-	.	(2b-/	al-	.	(2dd\	al-	.
4D\ 4d	4f/ 4b-X	.	4d/)	.	.	4f/)	.	.	4b-\)	.	.
4BB-\ 4B-	4f/ 4b- 4dd	.	4f/	-lé-	.	4b-/	-lé-	.	4dd\	-lé-	.
=18	=18	=18	=18	=18	=18	=18	=18	=18	=18	=18	=18
2FF/ 2F	2f/ 2a 2cc	>	2f/	-gres-	.	2a/	-gres-	.	2cc\	-gres-	.
2F\ 2c	2f/ 2a	]]	2f/	-se	.	2f/	-se	.	2a/	-se	.
!LO:LB:g=original	!LO:LB:g=original	!	!LO:LB:g=original	!	!	!LO:LB:g=original	!	!	!LO:LB:g=original	!	!
=19	=19	=19	=19	=19	=19	=19	=19	=19	=19	=19	=19
!	!	!	!	!	!LO:DY:a	!	!	!LO:DY:a	!	!	!LO:DY:a
4C\ 4c	2e/ 2g 2cc	p	2e/	te	p	2g/	te	p	2cc\	te	p
4BB-\ 4B-	.	.	.	.	.	.	.	.	.	.	.
2AA\ 2A	2f/ 2cc	.	2f/	té-	.	2f/	té-	.	2cc\	té-	.
=20	=20	=20	=20	=20	=20	=20	=20	=20	=20	=20	=20
2DD/ 2D	2f/ 2a 2dd	.	2f/	-moigne	.	2a/	-moigne	.	2dd\	-moigne	.
2BB-\ 2B-	2d^/ 2f 2b-	.	2d^>/	en	.	2f^>/	en	.	2b-^\	en	.
=21	=21	=21	=21	=21	=21	=21	=21	=21	=21	=21	=21
2FF/ 2F	2f/ 2a 2cc	.	4f/	ce-	.	4a/	ce-	.	4cc\	ce-	.
.	.	.	4f/	-beau	.	4a/	-beau	.	4cc\	-beau	.
2F;\ 2A	2f;/	.	2f;/	jour	.	2a;/	jour	.	2f;/	jour	.
=22	=22	=22	=22	=22	=22	=22	=22	=22	=22	=22	=22
!	!	!	!	!	!LO:DY:a	!	!	!LO:DY:a	!	!	!LO:DY:a
2FF/ 2F	2f/ 2a 2ff	f	2f/	Et	f	2a/	Et	f	2ff\	Et	f
2FF/ 2F	2f/ 2a 2cc	.	2f/	no-	.	2a/	no-	.	2cc\	no-	.
=23	=23	=23	=23	=23	=23	=23	=23	=23	=23	=23	=23
2BBB-/ 2BB-	2f/ 2b- 2dd	.	2B-/	-tre	.	2f/	-tre	.	2dd\	-tre	.
4DD/ 4D	4f/ 4b-	.	(4d/	ten-	.	2f/	ten-	.	(4b-\	ten-	.
4BBB-/ 4BB-	4f/ 4dd	.	4B-/)	.	.	.	.	.	4dd\)	.	.
=24	=24	=24	=24	=24	=24	=24	=24	=24	=24	=24	=24
2FF/ 2F	2f/ 2a 2cc	.	2f/	-dres-	.	2a/	-dres-	.	2cc\	-dres-	.
2F\ 2c	2f/ 2a	.	4f/	-se	.	4f/	-se	.	4a/	-se	.
.	.	.	4r	.	.	4r	.	.	4r	.	.
!LO:LB:g=original	!LO:LB:g=original	!	!LO:LB:g=original	!	!	!LO:LB:g=original	!	!	!LO:LB:g=original	!	!
=25	=25	=25	=25	=25	=25	=25	=25	=25	=25	=25	=25
2C\ 2c	2e/ 2g 2cc	.	2e/	et	.	2g/	et	.	2cc\	et	.
!	!	!	!	!	!	!	!	!	!LO:TX:a:t=elargissant	!	!
2FF/ 2F	2f/ 2a 2cc	sf sf	2f/	tout	.	2a/	tout	.	2cc\	tout	.
=26	=26	=26	=26	=26	=26	=26	=26	=26	=26	=26	=26
2.BBB-/ 2.BB-	2.f/ 2.dd	sf	2.B-^>/	notre	.	2.f^>/	notre	.	2.dd^\	notre	.
4CC/ 4C	4e/ 4cc	.	4c/	a-	.	4e/	a-	.	4cc\	a-	.
=27	=27	=27	=27	=27	=27	=27	=27	=27	=27	=27	=27
2FF;</ 2F	2A;/ 2f	.	2A;/	-mour	.	2f;/	-mour	.	2f;/	-mour	.
2r	4r	.	2r	.	.	2r	.	.	2r	.	.
.	4f/	.	.	.	.	.	.	.	.	.	.
=28	=28	=28	=28	=28	=28	=28	=28	=28	=28	=28	=28
4FF/ 4F	2f/ 2a	.	1r	.	.	1r	.	.	1r	.	.
4EE/ 4E	.	.	.	.	.	.	.	.	.	.	.
4DD/ 4D	4f/ 4b-	.	.	.	.	.	.	.	.	.	.
4CC/ 4C	4f/ 4cc	.	.	.	.	.	.	.	.	.	.
=29	=29	=29	=29	=29	=29	=29	=29	=29	=29	=29	=29
2BBB-/ 2BB-	2f/ 2dd	.	1r	.	.	1r	.	.	1r	.	.
4r	4r	.	.	.	.	.	.	.	.	.	.
4BB-\ 4B-	4f/ 4dd	.	.	.	.	.	.	.	.	.	.
=30	=30	=30	=30	=30	=30	=30	=30	=30	=30	=30	=30
*	*^	*	*	*	*	*	*	*	*	*	*
1C 1c	1e 1ee	2.cc\	.	1r	.	.	1r	.	.	1r	.	.
.	.	4b-\	.	.	.	.	.	.	.	.	.	.
=31	=31	=31	=31	=31	=31	=31	=31	=31	=31	=31	=31	=31
2FF/ 2F	2a/ 2ff	2f\	.	1r	.	.	1r	.	.	1r	.	.
!	!	!	!	!LO:LB:g=original	!	!	!LO:LB:g=original	!	!	!LO:LB:g=original	!	!
2r	2r	2ryy	.	.	.	.	.	.	.	.	.	.
!LO:LB:g=original	!LO:LB:g=original	!LO:LB:g=original	!	!	!	!	!	!	!	!	!	!
*	*v	*v	*	*	*	*	*	*	*	*	*	*
=32	=32	=32	=32	=32	=32	=32	=32	=32	=32	=32	=32
!	!	!	!	!	!LO:DY:a	!	!	!LO:DY:a	!LO:TX:a:t=2e. STROPHE.	!	!LO:DY:a
4FF/ 4F	4a/ 4cc	p	2f/	No-	p	2a/	No-	p	2cc\	No-	p
4r	4f/	.	.	.	.	.	.	.	.	.	.
4FF/ 4F	4b-/ 4dd	.	2f/	-tre	.	2b-/	-tre	.	2dd\	-tre	.
4r	4f/	.	.	.	.	.	.	.	.	.	.
=33	=33	=33	=33	=33	=33	=33	=33	=33	=33	=33	=33
4FF/ 4F	4a/ 4cc	.	2f/	Mè-	.	2a/	Mè-	.	2cc\	Mè-	.
4r	4f/	.	.	.	.	.	.	.	.	.	.
.	8qcc/	.	.	.	.	.	.	.	.	.	.
2F\ 2c	4g/ 4b-	.	4f/	-re i-	.	4g/	-re i-	.	4b-/	-re i-	.
.	4f/ 4a	.	4f/	-ma-	.	4f/	-ma-	.	4a/	-ma-	.
=34	=34	=34	=34	=34	=34	=34	=34	=34	=34	=34	=34
*^	*	*	*	*	*	*	*	*	*	*	*
(4c/	2C\	2e/ 2g	.	2c/	-cu-	.	2e/	-cu-	.	2g/	-cu-	.
4B-/	.	.	.	.	.	.	.	.	.	.	.	.
4A/)	4F\	4f/	.	4f/	-le	.	4f/	-le	.	4f/	-le	.
4r	4ryy	8a/L	.	4f/	e	.	4f/	e	.	4f/	e	.
.	.	8cc/J	.	.	.	.	.	.	.	.	.	.
*v	*v	*	*	*	*	*	*	*	*	*	*	*
=35	=35	=35	=35	=35	=35	=35	=35	=35	=35	=35	=35
!	!	!	!	!	!LO:DY:a	!	!	!LO:DY:a	!	!	!
2FF/ 2F	4a\ 4ff	f	2f/	Re-	f	2a/	Re-	f	2ff\	Re-	.
.	4f/	.	.	.	.	.	.	.	.	.	.
2AA\ 2A	4cc\ 4ee	.	2f/	-gar-	.	2cc/	-gar-	.	2ee\	-gar-	.
.	4f/	.	.	.	.	.	.	.	.	.	.
=36	=36	=36	=36	=36	=36	=36	=36	=36	=36	=36	=36
2BB-\ 2B-	4b-\ 4dd	.	2f/	-de	.	2b-/	-de	.	2dd\	-de	.
.	4f/	.	.	.	.	.	.	.	.	.	.
2GG/ 2G	4bn\ 4ff	>	2g^>/	ton	.	2bn^>/	ton	.	2ff^\	ton	.
.	4g/	]]	.	.	.	.	.	.	.	.	.
=37	=37	=37	=37	=37	=37	=37	=37	=37	=37	=37	=37
2C\ 2c	4g\ 4cc 4ee	.	(4g/	en-	.	(4cc\	en-	.	(4ee\	en-	.
.	4f\ 4bn 4dd	.	4f/)	.	.	4bn\)	.	.	4dd\)	.	.
!	!	!	!	!	!LO:DY:a	!	!	!LO:DY:a	!	!	!LO:DY:a
2C;\ 2c	2e;\ 2cc	.	2e;/	-fant	p	2cc;\	-fant	p	2cc;\	-fant	p
!LO:LB:g=original	!LO:LB:g=original	!	!LO:LB:g=original	!	!	!LO:LB:g=original	!	!	!LO:LB:g=original	!	!
=38	=38	=38	=38	=38	=38	=38	=38	=38	=38	=38	=38
!	!	!	!	!	!	!	!	!	!	!	!LO:DY:a
4FF/ 4F	4a/ 4cc	p	2f/	Que	.	2a/	Que	.	2cc\	Que	p
4ryy	4f/	.	.	.	.	.	.	.	.	.	.
4FF/ 4F	4b-X/ 4dd	.	4f/	no-	.	4b-X/	no-	.	4dd\	no-	.
4r	4f/	.	4f/	-tre	.	4b-/	-tre	.	4dd\	-tre	.
=39	=39	=39	=39	=39	=39	=39	=39	=39	=39	=39	=39
4FF/ 4F	4a/ 4cc	.	2f/	vie-	.	2a/	vie-	.	2cc\	vie-	.
4r	4f/	.	.	.	.	.	.	.	.	.	.
.	8qcc/	.	.	.	.	.	.	.	.	.	.
2F\ 2c	4g/ 4b-	.	4f/	-é-	.	4g/	-é-	.	4b-\	-é-	.
.	4f/ 4a	.	4f/	-cou-	.	4f/	-cou-	.	4a/	-cou-	.
=40	=40	=40	=40	=40	=40	=40	=40	=40	=40	=40	=40
*^	*	*	*	*	*	*	*	*	*	*	*
(4c/	2C\	2e/ 2g	.	2c/	-le-	.	2e/	-le-	.	2g/	-le	.
4B-/	.	.	.	.	.	.	.	.	.	.	.	.
4A/)	4F\	(8f/L	.	2f/	-e	.	2f/	-e	.	2f/	e	.
.	.	8a/	.	.	.	.	.	.	.	.	.	.
4r	4ryy	8cc/	.	.	.	.	.	.	.	.	.	.
.	.	8a/J)	.	.	.	.	.	.	.	.	.	.
*v	*v	*	*	*	*	*	*	*	*	*	*	*
=41	=41	=41	=41	=41	=41	=41	=41	=41	=41	=41	=41
!	!	!	!	!	!	!	!	!	!	!	!LO:DY:a
2FF/ 2F	4a\ 4ff	f	2f/	ren-	.	2a/	ren-	.	2ff\	ren-	f
.	4f/	.	.	.	.	.	.	.	.	.	.
2AA\ 2A	4cc\ 4ee	.	2f/	-tre	.	2cc\	-tre	.	2ee\	-tre	.
.	4f/	.	.	.	.	.	.	.	.	.	.
=42	=42	=42	=42	=42	=42	=42	=42	=42	=42	=42	=42
2BB-\ 2B-	4b-\ 4dd	.	2f/	dans	.	2b-\	dans	.	2dd\	dans	.
.	4f/	.	.	.	.	.	.	.	.	.	.
2BBn\ 2Bn	4dd\ 4ff	>	2a-X/	le	.	2dd\	le	.	2ff\	le	.
.	4a-X/	.	.	.	.	.	.	.	.	.	.
=43	=43	=43	=43	=43	=43	=43	=43	=43	=43	=43	=43
2C\ 2c	4g/ 4cc 4ee	.	(4g/	né-	.	(4cc\	né-	.	(4ee\	né-	.
.	4f/ 4bn 4dd	] p	4f/)	.	.	4bn\)	.	.	4dd\)	.	.
2C;<\ 2c	2e;</ 2cc	.	2e;/	-ant	.	2cc;\	-ant	.	2cc;\	-ant	.
!LO:LB:g=original	!LO:LB:g=original	!	!LO:LB:g=original	!	!	!LO:LB:g=original	!	!	!LO:LB:g=original	!	!
=44	=44	=44	=44	=44	=44	=44	=44	=44	=44	=44	=44
!	!	!	!	!	!LO:DY:a	!	!	!	!	!	!LO:DY:a
1FF 1F	4a\ 4ff	f	(2f/	sois	f	1r	.	.	(2ff\	sois	f
.	4f/	.	.	.	.	.	.	.	.	.	.
.	4a/ 4cc	.	2a/)	.	.	.	.	.	2cc\)	.	.
.	4f/	.	.	.	.	.	.	.	.	.	.
=45	=45	=45	=45	=45	=45	=45	=45	=45	=45	=45	=45
!	!	!	!	!	!	!	!	!LO:DY:a	!	!	!
1BBB- 1BB-	4b-\ 4dd	sf	2f/	.	.	2b-\	sois	f	(2dd\	no-	.
.	4f/	.	.	.	.	.	.	.	.	.	.
.	4b-/	.	4d/	no-	.	4f/	no-	.	4b-\)	.	.
.	4dd\	.	4B-/	-tre	.	4f/	-tre	.	4dd\	-tre	.
=46	=46	=46	=46	=46	=46	=46	=46	=46	=46	=46	=46
2FF/ 2F	4cc/	.	2f/	gui-	.	2a/	gui-	.	2cc\	gui-	.
.	4a/	.	.	.	.	.	.	.	.	.	.
2F\ 2A	4ff\	.	2f/	-de	.	2f/	-de	.	2a/	-de	.
.	4f/	.	.	.	.	.	.	.	.	.	.
=47	=47	=47	=47	=47	=47	=47	=47	=47	=47	=47	=47
!	!	!	!	!	!LO:DY:a	!	!	!LO:DY:a	!	!	!LO:DY:a
4C\ 4c	4e/ 4cc	p	2e/	et	p	2g/	et	p	2cc\	et	p
4BB-\ 4B-	4g/	.	.	.	.	.	.	.	.	.	.
2AA\ 2A	4f/	.	2f/	con-	.	2f/	con-	.	2cc\	con-	.
.	4cc\	.	.	.	.	.	.	.	.	.	.
=48	=48	=48	=48	=48	=48	=48	=48	=48	=48	=48	=48
2DD^>/ 2D	2f/ 2a 2dd	.	2f/	-duis	.	2a/	-duis	.	2dd\	-duis	.
2BBB-^>/ 2BB-	2f/ 2b- 2dd	.	2d/	nous	.	2f/	nous	.	2b-\	nous	.
=49	=49	=49	=49	=49	=49	=49	=49	=49	=49	=49	=49
2FF/ 2F	2f/ 2a 2cc	.	4f/	pas	.	4a/	pas	.	4cc\	pas	.
.	.	.	4f/	à	.	4a/	à	.	4cc\	à	.
2FF;</ 2F	2f;</ 2a	p	2f;/	pas	.	2f;/	pas	.	2a;/	pas	.
!LO:PB:g=original	!LO:PB:g=original	!	!LO:PB:g=original	!	!	!LO:PB:g=original	!	!	!LO:PB:g=original	!	!
=50	=50	=50	=50	=50	=50	=50	=50	=50	=50	=50	=50
!	!	!	!	!	!	!	!	!LO:DY:a	!	!	!LO:DY:a
2FF/ 2F	4a\ 4ff	f	1r	.	.	1a	sois	f	(2ff\	sois	f
.	4f/	.	.	.	.	.	.	.	.	.	.
2ryy	4a/ 4cc	.	.	.	.	.	.	.	2cc\)	.	.
.	4f/	.	.	.	.	.	.	.	.	.	.
=51	=51	=51	=51	=51	=51	=51	=51	=51	=51	=51	=51
!	!	!	!	!	!LO:DY:a	!	!	!	!	!	!
2BBB-/ 2BB-	4b-\ 4dd	.	2B-/	Sois	f	2.f/	no-	.	(2dd\	no-	.
.	4f/	.	.	.	.	.	.	.	.	.	.
4B-\ 4d	4b-\	.	4d/	notre	.	.	.	.	4b-\)	-tre	.
4r	4dd\	.	4B-/	é-	.	4f/	-tre é-	.	4dd\	é-	.
=52	=52	=52	=52	=52	=52	=52	=52	=52	=52	=52	=52
!	!	!	!	!	!LO:DY:a	!	!	!LO:DY:a	!	!	!LO:DY:a
(2F\	4cc\	.	2f/	-gi-	p	2a/	-gi-	p	2cc\	-gi-	p
.	4a/	.	.	.	.	.	.	.	.	.	.
2F\) 2A	4ff\	.	2f/	-de	.	2f/	-de	.	2a/	-de	.
.	4f/	.	.	.	.	.	.	.	.	.	.
=53	=53	=53	=53	=53	=53	=53	=53	=53	=53	=53	=53
!	!	!	!	!	!LO:DY:a	!	!	!LO:DY:a	!	!	!LO:DY:a
2C\ 2c	2e/ 2g 2cc	f	(2e/	jus-	f	(2g/	jus-	f	1cc	jus-	f
2FF/ 2F	2f/ 2a 2cc	.	2f/)	.	.	2a/)	.	.	.	.	.
=54	=54	=54	=54	=54	=54	=54	=54	=54	=54	=54	=54
2.BBB-^>/ 2.BB-	2.f^/ 2.dd	.	2.B-^>/	-qu'au	.	2.f/	-qu'au	.	2.dd^\	-qu'au-	.
4CC/ 4C	4e/ 4cc	.	4c/	tré-	.	4e/	tré-	.	4cc\	-tré-	.
=55	=55	=55	=55	=55	=55	=55	=55	=55	=55	=55	=55
2FF;</	2f;\ 2a 2ff	.	2f;/	-pas	.	2f;/	-pas	.	2f;/	-pas	.
2r	4r	.	2r	.	.	2r	.	.	2r	.	.
.	4a/	.	.	.	.	.	.	.	.	.	.
!LO:LB:g=original	!LO:LB:g=original	!	!LO:LB:g=original	!	!	!LO:LB:g=original	!	!	!LO:LB:g=original	!	!
=56	=56	=56	=56	=56	=56	=56	=56	=56	=56	=56	=56
!	!	!LO:DY:a	!	!	!	!	!	!	!	!	!
4FF/ 4F	2f/ 2a	p <	1r	.	.	1r	.	.	1r	.	.
4EE/ 4E	.	.	.	.	.	.	.	.	.	.	.
4DD/ 4D	4f/ 4b-	.	.	.	.	.	.	.	.	.	.
4CC/ 4C	4f/ 4cc	[[	.	.	.	.	.	.	.	.	.
=57	=57	=57	=57	=57	=57	=57	=57	=57	=57	=57	=57
4BBB-/ 4BB-	4f/ 4dd	sf	1r	.	.	1r	.	.	1r	.	.
4r	4r	.	.	.	.	.	.	.	.	.	.
4CC/ 4C	4e/ 4cc	sf	.	.	.	.	.	.	.	.	.
4r	4r	.	.	.	.	.	.	.	.	.	.
=58||	=58||	=58||	=58||	=58||	=58||	=58||	=58||	=58||	=58||	=58||	=58||
!	!	!	!	!	!LO:DY:a	!	!	!LO:DY:a	!LO:TX:a:t=3e. STROPHE.	!	!LO:DY:a
2FF/ 2F	2f/ 2a 2cc	p	2f/	Quand	p	2a/	Quand	pp	2cc\	Quand	p
2FF/ 2F	2f/ 2b- 2dd	.	4f/	vien-	.	4b-/	vien-	.	4dd\	vien-	.
.	.	.	4f/	-dra	.	4b-/	-dra	.	4dd\	-dra	.
=59	=59	=59	=59	=59	=59	=59	=59	=59	=59	=59	=59
2FF/ 2F	(2f/ 2a 2cc	.	2f/	l'heu-	.	2a/	l'heu-	.	2cc\	l'heu-	.
4FF/ 4F	4g/ 4b-	.	4f/	-re	.	4g/	-re	.	4b-\	-re	.
4FF/ 4F	4f/ 4a)	.	4f/	der-	.	4f/	der-	.	4a/	der-	.
=60	=60	=60	=60	=60	=60	=60	=60	=60	=60	=60	=60
*^	*	*	*	*	*	*	*	*	*	*	*
(4c/	2C\	2e/ 2g	.	2c/	-niè-	.	2e/	-niè-	.	2g/	-niè-	.
4B-/	.	.	.	.	.	.	.	.	.	.	.	.
4A/)	4F\	4f/	.	2f/	-re	.	2f/	-re	.	2f/	-re	.
4r	4ryy	8a/L	.	.	.	.	.	.	.	.	.	.
.	.	8cc/J	.	.	.	.	.	.	.	.	.	.
*v	*v	*	*	*	*	*	*	*	*	*	*	*
=61	=61	=61	=61	=61	=61	=61	=61	=61	=61	=61	=61
!	!	!	!	!	!LO:DY:a	!	!	!LO:DY:a	!	!	!LO:DY:a
2FF/ 2F	2f\ 2a 2ff	f	2f/	prends	f	2a/	prends	f	2ff\	prends	f
2AA\ 2A	2f\ 2cc 2ee	.	2f/	pi-	.	2cc\	pi-	.	2ee\	pi-	.
!LO:LB:g=original	!LO:LB:g=original	!	!LO:LB:g=original	!	!	!LO:LB:g=original	!	!	!LO:LB:g=original	!	!
=62	=62	=62	=62	=62	=62	=62	=62	=62	=62	=62	=62
2BB-\ 2B-	2f/ 2b- 2dd	.	2f/	-tié	.	2b-\	-tié	.	2dd\	-tié	.
2BBn\ 2Bn	2a-X\ 2dd 2ff	sf	2a-X/	du	.	2dd\	du	.	2ff\	du	.
=63	=63	=63	=63	=63	=63	=63	=63	=63	=63	=63	=63
2C\ 2c	4g\ 4cc 4ee	>	(4g/	pe-	.	(4cc\	pe-	.	(4ee\	pe-	.
.	4f/ 4bn 4dd	.	4f/)	.	.	4bn\)	.	.	4dd\)	.	.
2C;<\ 2c	2e;/ 2cc	]	2e;/	-cheur	.	2cc;\	-cheur	.	2cc;\	-cheur	.
=64	=64	=64	=64	=64	=64	=64	=64	=64	=64	=64	=64
!	!	!	!	!	!LO:DY:a	!	!	!LO:DY:a	!	!	!LO:DY:a
2FF/ 2F	2f/ 2a 2cc	p	2f/	Que	p	2a/	Que	p	2cc\	Que	p
2FF/ 2F	2f/ 2b-X 2dd	.	2f/	du	.	2b-X/	du	.	2dd\	du	.
=65	=65	=65	=65	=65	=65	=65	=65	=65	=65	=65	=65
2FF/ 2F	(2f/ 2a 2cc	.	2f/	Ciel	.	2a/	Ciel	.	2cc\	Ciel	.
.	8qcc/	.	.	.	.	.	.	.	.	.	.
4FF/ 4F	4g/ 4b-	.	4f/	ta	.	4g/	ta	.	4b-\	ta	.
4FF/ 4F	4f/) 4a	.	4f/	pri-	.	4f/	pri-	.	4a/	pri-	.
=66	=66	=66	=66	=66	=66	=66	=66	=66	=66	=66	=66
*^	*	*	*	*	*	*	*	*	*	*	*
(4c/	2C\	(2e/ 2g	.	2c/	-è-	.	2e/	-è-	.	2g/	-è-	.
4B-/	.	.	.	.	.	.	.	.	.	.	.	.
4A/)	4F\	4f/)	.	2f/	-re	.	2f/	-re	.	2f/	-re	.
4r	4ryy	8a/L	.	.	.	.	.	.	.	.	.	.
.	.	8cc/J	.	.	.	.	.	.	.	.	.	.
*v	*v	*	*	*	*	*	*	*	*	*	*	*
=67	=67	=67	=67	=67	=67	=67	=67	=67	=67	=67	=67
!	!	!	!	!	!LO:DY:a	!	!	!LO:DY:a	!	!	!LO:DY:a
2FF/ 2F	2f/ 2a 2ff	.	2f/	com-	f	2a/	com-	f	2ff\	com-	f
2AA/ 2A	2f/ 2cc 2ee	.	2f/	-men-	.	2cc\	-men-	.	2ee\	-men-	.
!LO:LB:g=original	!LO:LB:g=original	!	!LO:LB:g=original	!	!	!LO:LB:g=original	!	!	!LO:LB:g=original	!	!
=68	=68	=68	=68	=68	=68	=68	=68	=68	=68	=68	=68
2BB-\ 2B-	2f\ 2b- 2dd	.	2f/	-ce	.	2b-\	-ce	.	2dd\	-ce	.
2BBn\ 2Bn	2a-X\ 2dd 2ff	.	2f/	le	.	2dd\	le	.	2ff\	le	.
=69	=69	=69	=69	=69	=69	=69	=69	=69	=69	=69	=69
2C\ 2c	4g\ 4cc 4ee	>	(4e/	bon-	.	(4cc\	bon-	.	(4ee\	bon-	.
.	4f\ 4bn 4dd	]	4f/)	.	.	4bn\)	.	.	4dd\)	.	.
2C\ 2c	2e;/ 2cc	p	2e;/	-heur	.	2cc;\	-heur	.	2cc;\	-heur	.
=70	=70	=70	=70	=70	=70	=70	=70	=70	=70	=70	=70
!	!	!	!	!	!LO:DY:a	!	!	!LO:DY:a	!	!	!LO:DY:a
2FF/ 2F	2f\ 2a 2ff	f >	1f	O	p	1a	O	p	(2ff\	O	p
2FF/ 2F	2f/ 2a 2cc	]	.	.	.	.	.	.	2cc\)	.	.
=71	=71	=71	=71	=71	=71	=71	=71	=71	=71	=71	=71
2BB-\ 2B-	2f/ 2b- 2dd	.	2B-/	Rei-	.	2f/	Rei-	.	2dd\	Rei-	.
4D\ 4d	4f/ 4b-X	.	4d/	-ne	.	4f/	-ne	.	4b-\	-ne	.
4BB-\ 4B-	4f/ 4b- 4dd	.	4B-/	des	.	4f/	des	.	4dd\	des	.
=72	=72	=72	=72	=72	=72	=72	=72	=72	=72	=72	=72
2FF/ 2F	2f/ 2a 2cc	>	2f/	an-	.	2f/	an-	.	2cc\	an-	.
2F\ 2c	2f/ 2a	]	2f/	-ges	.	2f/	-ges	.	2a/	-ges	.
=73	=73	=73	=73	=73	=73	=73	=73	=73	=73	=73	=73
4C\ 4c	2e/ 2g 2cc	p	2e/	beau	.	2g/	beau	.	2cc\	beau	.
4BB-\ 4B-	.	.	.	.	.	.	.	.	.	.	.
2AA\ 2A	2f/ 2cc	.	2f/	so-	.	2f/	so-	.	2cc\	so-	.
!LO:LB:g=original	!LO:LB:g=original	!	!LO:LB:g=original	!	!	!LO:LB:g=original	!	!	!LO:LB:g=original	!	!
=74	=74	=74	=74	=74	=74	=74	=74	=74	=74	=74	=74
2DD/ 2D	2f/ 2a 2dd	.	2f/	-leil	.	2a/	-leil	.	2dd\	-leil	.
2BB-^\ 2B-	2f/ 2dd	.	2d/	res-	.	2f/	res-	.	2b-\	res-	.
=75	=75	=75	=75	=75	=75	=75	=75	=75	=75	=75	=75
2FF/ 2F	2f/ 2a 2cc	.	4f/	-plen-	.	4a/	-plen-	.	4cc\	-plen-	.
!	!	!	!	!	!LO:DY:a	!	!	!LO:DY:a	!	!	!LO:DY:a
.	.	.	4f/	-dis-	p	4a/	-dis-	p	4cc\	-dis-	p
2F;\ 2A	2f;/	.	2f;/	-sant	.	2f;/	-sant	.	2f;/	-sant	.
=76	=76	=76	=76	=76	=76	=76	=76	=76	=76	=76	=76
!	!	!	!	!	!LO:DY:a	!	!	!LO:DY:a	!	!	!LO:DY:a
2FF/ 2F	2f/ 2a 2ff	f	2f/	re-	f	2a/	re-	f	2ff\	re-	f
2FF/ 2F	2f/ 2a 2cc	.	2f/	-cois	.	2a/	-cois	.	2cc\	-cois	.
=77	=77	=77	=77	=77	=77	=77	=77	=77	=77	=77	=77
2BBB-/ 2BB-	2f/ 2b- 2dd	.	2B-/	la	.	(2b-/	la	.	(2dd\	la	.
4DD/ 4D	4f/ 4b-	.	4d/	.	.	4f/)	.	.	4b-\)	.	.
4BBB-/ 4BB-	4f/ 4dd	.	4B-/	lou-	.	4f/	lou-	.	4dd\	lou-	.
=78	=78	=78	=78	=78	=78	=78	=78	=78	=78	=78	=78
2FF/ 2F	2f/ 2a 2cc	.	2f/	-an-	.	2a/	-an-	.	2cc\	-an-	.
2A\ 2c	2f/ 2a	.	2f/	-ge	.	2f/	-ge	.	2a/	-ge	.
=79	=79	=79	=79	=79	=79	=79	=79	=79	=79	=79	=79
2C\ 2c	2e/ 2g 2cc	sf sf sf	(2e/	de	.	(2g/	de	.	1cc	de	.
2FF/ 2F	2f/ 2a 2cc	sf sf sf	2f/)	.	.	2a/)	.	.	.	.	.
!LO:LB:g=original	!LO:LB:g=original	!	!LO:LB:g=original	!	!	!LO:LB:g=original	!	!	!LO:LB:g=original	!	!
=80	=80	=80	=80	=80	=80	=80	=80	=80	=80	=80	=80
2.BBB-/ 2.BB-	2.f/ 2.dd	sf >	2.B-^>/	ton	.	2.f^>/	ton	.	2.dd^\	ton	.
4CC/ 4C	4e/ 4cc	]]	4c/	en-	.	4e/	en-	.	4cc\	en-	.
=81	=81	=81	=81	=81	=81	=81	=81	=81	=81	=81	=81
2FF/ 2F	2A;/ 2f	.	2A;/ 2f	-fant	.	2f;/	-fant	.	2f;/	-fant	.
2r	4r	.	2r	.	.	2r	.	.	2r	.	.
.	4f/	.	.	.	.	.	.	.	.	.	.
=82	=82	=82	=82	=82	=82	=82	=82	=82	=82	=82	=82
4FF/ 4F	2f/ 2a	<	1r	.	.	1r	.	.	1r	.	.
4EE/ 4E	.	.	.	.	.	.	.	.	.	.	.
4DD/ 4D	4f/ 4b-	.	.	.	.	.	.	.	.	.	.
4CC/ 4C	4f/ 4cc	[[	.	.	.	.	.	.	.	.	.
=83	=83	=83	=83	=83	=83	=83	=83	=83	=83	=83	=83
2BBB-/ 2BB-	2f/ 2dd	.	1r	.	.	1r	.	.	1r	.	.
4r	4r	.	.	.	.	.	.	.	.	.	.
4BB-\ 4B-	4f/ 4dd	.	.	.	.	.	.	.	.	.	.
=84	=84	=84	=84	=84	=84	=84	=84	=84	=84	=84	=84
*	*^	*	*	*	*	*	*	*	*	*	*
1C 1c	1e 1ee	2.cc\	f	1r	.	.	1r	.	.	1r	.	.
.	.	4b-\	.	.	.	.	.	.	.	.	.	.
=85	=85	=85	=85	=85	=85	=85	=85	=85	=85	=85	=85	=85
*^	*	*	*	*	*	*	*	*	*	*	*	*
2F/	2FF\	2ff/	2a\	.	1r	.	.	1r	.	.	1r	.	.
2r	2ryy	2r	2ryy	.	.	.	.	.	.	.	.	.	.
*v	*v	*	*	*	*	*	*	*	*	*	*	*	*
*	*v	*v	*	*	*	*	*	*	*	*	*	*
==	==	==	==	==	==	==	==	==	==	==	==
*-	*-	*-	*-	*-	*-	*-	*-	*-	*-	*-	*-
!!!RDF**kern: > = above
!!!RDF**kern: < = below
!!!system-decoration: [(s1,s2,s3)][(s4,s5)]
!!!ENC: Andrzej Gręziak
!!!END: 2022-08-08
!!!ENC: Julita Ruszuk
!!!END: 2022-09-04
!!!YEC: Copyright 2022 Narodowy Instytut Fryderyka Chopina (https://polishscores.org)
!!!YEM: License CC-BY-4.0 (https://creativecommons.org/licenses/by/4.0)
